localPackages/DesignSystem/Sources/DesignSystem/Resources/Assets.xcassets/IconSet/ic-mailbox.imageset/ic-mailbox.svg

<svg width="24" height="24" viewBox="0 0 24 24" fill="none" xmlns="http://www.w3.org/2000/svg">
<g id="ic-mailbox">
<path id="Icon" fill-rule="evenodd" clip-rule="evenodd" d="M6.75 3C3.02208 3 0 6.02208 0 9.75V20.1C0 20.5971 0.402953 21 0.900001 21H12.75H13.5H23.1C23.5971 21 24 20.597 24 20.1V9.75C24 6.02208 20.9779 3 17.25 3H6.75ZM10.993 4.5H17.25C20.1495 4.5 22.5 6.85051 22.5 9.75V19.5H13.5V9.75C13.5 7.62955 12.5222 5.73747 10.993 4.5ZM12 19.5V9.75C12 6.85051 9.6495 4.5 6.75 4.5C3.85051 4.5 1.5 6.85051 1.5 9.75V19.5H12ZM14.25 9C14.25 8.58579 14.5858 8.25 15 8.25H18H20.25C20.6642 8.25 21 8.58579 21 9V12C21 12.4142 20.6642 12.75 20.25 12.75H18C17.5858 12.75 17.25 12.4142 17.25 12V9.75H15C14.5858 9.75 14.25 9.41421 14.25 9ZM18.75 9.75V11.25H19.5V9.75H18.75ZM3.75 8.25C3.33579 8.25 3 8.58579 3 9C3 9.41421 3.33579 9.75 3.75 9.75H9C9.41421 9.75 9.75 9.41421 9.75 9C9.75 8.58579 9.41421 8.25 9 8.25H3.75Z" fill="#0F0F0F"/>
</g>
</svg>

<svg xmlns="http://www.w3.org/2000/svg" width="24" height="24" viewBox="0 0 24 24">
  <g class="ic-mailbox">
    <path fill-rule="evenodd" d="M6.75 3A6.75 6.75 0 0 0 0 9.75V20.1a.9.9 0 0 0 .9.9h22.2a.9.9 0 0 0 .9-.9V9.75A6.75 6.75 0 0 0 17.25 3H6.75Zm4.243 1.5h6.257c2.9 0 5.25 2.35 5.25 5.25v9.75h-9V9.75c0-2.12-.978-4.013-2.507-5.25ZM12 19.5V9.75a5.25 5.25 0 1 0-10.5 0v9.75H12ZM14.25 9a.75.75 0 0 1 .75-.75h5.25A.75.75 0 0 1 21 9v3a.75.75 0 0 1-.75.75H18a.75.75 0 0 1-.75-.75V9.75H15a.75.75 0 0 1-.75-.75Zm4.5.75v1.5h.75v-1.5h-.75Zm-15-1.5a.75.75 0 0 0 0 1.5H9a.75.75 0 0 0 0-1.5H3.75Z" class="Icon"/>
  </g>
</svg>
